2 Export/Icons/Brands/Yandex.svg

<svg xmlns="http://www.w3.org/2000/svg" xmlns:xlink="http://www.w3.org/1999/xlink" width="24" height="24" viewBox="0 0 24 24">
  <defs>
    <path id="yandex-a" d="M4.4265,15.582 L4.4265,13.4445 L3,9.61875 L3.71775,9.61875 L4.76775,12.57225 L5.9775,9 L6.63525,9 L5.0835,13.47 L5.0835,15.58125 L4.4265,15.58125 L4.4265,15.582 Z M8.655,15.582 L8.1045,15.582 C8.07975,15.48825 8.05575,15.357 8.04825,15.24675 L8.0055,15.24675 C7.821,15.4815 7.58625,15.6405 7.21725,15.6405 C6.61875,15.6405 6.20925,15.18975 6.20925,14.3625 C6.20925,13.4625 6.6675,12.8955 7.84425,12.8955 L7.9365,12.8955 L7.9365,12.64575 C7.9365,12.0945 7.752,11.85975 7.38525,11.85975 C7.0515,11.85975 6.76725,12.03525 6.55125,12.22725 L6.426,11.65275 C6.618,11.493 7.0005,11.3175 7.428,11.3175 C8.1705,11.3175 8.57775,11.6355 8.57775,12.65325 L8.57775,14.63025 C8.57775,15.03075 8.619,15.38175 8.65275,15.5805 L8.655,15.582 L8.655,15.582 Z M7.93875,13.38825 L7.863,13.38825 C7.053,13.38825 6.87825,13.7475 6.87825,14.28825 C6.87825,14.772 7.03575,15.0885 7.3695,15.0885 C7.5945,15.0885 7.82025,14.9385 7.93725,14.75475 L7.93875,13.38825 Z M10.04025,15.582 L9.3885,15.582 L9.3885,11.36625 L10.04025,11.36625 L10.04025,11.7345 L10.08225,11.7345 C10.19775,11.577 10.51575,11.3175 10.908,11.3175 C11.457,11.3175 11.74875,11.6265 11.74875,12.2685 L11.74875,15.582 L11.09025,15.582 L11.09025,12.327 C11.09025,12.00975 10.94925,11.8995 10.69725,11.8995 C10.42425,11.8995 10.191,12.10875 10.0395,12.31875 L10.0395,15.58125 L10.04025,15.582 Z M12.3915,13.638 C12.3915,12.078 12.9765,11.3175 13.81725,11.3175 C14.01825,11.3175 14.226,11.385 14.352,11.47575 L14.352,9.61875 L15.00375,9.61875 L15.00375,15.58125 L14.52,15.58125 L14.46825,15.2475 L14.427,15.2475 C14.24325,15.4815 14.01,15.63825 13.66725,15.63825 C12.84225,15.63825 12.393,14.9385 12.393,13.638 L12.3915,13.638 L12.3915,13.638 Z M14.35275,12.05175 C14.22075,11.91975 14.07825,11.85225 13.86075,11.85225 C13.33575,11.85225 13.0845,12.645 13.0845,13.50375 C13.0845,14.4885 13.269,15.08925 13.74525,15.08925 C14.07225,15.08925 14.24475,14.9295 14.3535,14.763 L14.3535,12.05175 L14.35275,12.05175 Z M17.05575,15.6405 C16.1895,15.6405 15.654,14.9475 15.654,13.65525 C15.654,12.30225 16.02975,11.31825 16.9215,11.31825 C17.62275,11.31825 18.0795,11.844 18.0795,13.27125 L18.0795,13.62975 L16.33125,13.62975 C16.33125,14.58075 16.5975,15.081 17.115,15.081 C17.48175,15.081 17.75025,14.9145 17.916,14.7975 L18.066,15.29775 C17.8005,15.50625 17.4735,15.63975 17.05725,15.63975 L17.05575,15.6405 L17.05575,15.6405 Z M16.338,13.095 L17.41425,13.095 C17.41425,12.37725 17.298,11.85225 16.92225,11.85225 C16.52325,11.85225 16.38225,12.345 16.33725,13.095 L16.338,13.095 Z M20.90925,11.376 L20.1255,13.34475 L21,15.582 L20.32575,15.582 L19.67325,13.8465 L19.04025,15.58125 L18.399,15.58125 L19.2735,13.40325 L18.48075,11.37675 L19.1565,11.37675 L19.70175,12.903 L20.2755,11.376 L20.91,11.376 L20.90925,11.376 Z"/>
  </defs>
  <g fill="none" fill-rule="evenodd">
    <polygon points="0 0 24 0 24 24 0 24"/>
    <mask id="yandex-b" fill="#fff">
      <use xlink:href="#yandex-a"/>
    </mask>
    <use fill="#000" xlink:href="#yandex-a"/>
    <g fill="#000" mask="url(#yandex-b)">
      <rect width="24" height="24"/>
    </g>
  </g>
</svg>

<svg xmlns="http://www.w3.org/2000/svg" xmlns:xlink="http://www.w3.org/1999/xlink" width="24" height="24" viewBox="0 0 24 24">
  <defs>
    <path id="yandex-a" d="M4.426 15.582v-2.138L3 9.62h.718l1.05 2.953L5.978 9h.657l-1.551 4.47v2.111h-.657v.001zm4.229 0h-.55a1.953 1.953 0 0 1-.057-.335h-.043c-.184.235-.419.393-.788.393-.598 0-1.008-.45-1.008-1.277 0-.9.459-1.467 1.635-1.467h.092v-.25c0-.552-.184-.786-.55-.786-.335 0-.619.175-.835.367l-.125-.574c.192-.16.574-.335 1.002-.335.743 0 1.15.318 1.15 1.335v1.977c0 .4.041.752.075.95l.002.002zm-.716-2.194h-.076c-.81 0-.985.36-.985.9 0 .484.158.8.492.8.224 0 .45-.15.567-.333l.002-1.367zm2.101 2.194h-.65v-4.216h.651v.369h.042c.116-.158.434-.417.826-.417.549 0 .84.309.84.95v3.314h-.658v-3.255c0-.317-.14-.428-.393-.428-.273 0-.506.21-.657.42v3.263zm2.352-1.944c0-1.56.585-2.32 1.425-2.32.201 0 .409.067.535.158V9.619h.652v5.962h-.484l-.052-.333h-.041c-.184.234-.417.39-.76.39-.825 0-1.274-.7-1.274-2h-.002zm1.96-1.586a.636.636 0 0 0-.491-.2c-.525 0-.777.793-.777 1.652 0 .985.185 1.585.661 1.585.327 0 .5-.16.609-.326v-2.711h-.001zm2.704 3.588c-.867 0-1.402-.693-1.402-1.985 0-1.353.376-2.337 1.268-2.337.7 0 1.157.526 1.157 1.953v.359h-1.748c0 .95.267 1.451.784 1.451.367 0 .635-.166.801-.284l.15.5a1.58 1.58 0 0 1-1.009.343h-.001zm-.718-2.545h1.076c0-.718-.116-1.243-.492-1.243-.399 0-.54.493-.585 1.243h.001zm4.571-1.719l-.784 1.969.875 2.237h-.674l-.653-1.736-.633 1.735h-.64l.874-2.178-.792-2.026h.675l.546 1.526.573-1.527h.635z"/>
  </defs>
  <g fill="none" fill-rule="evenodd">
    <polygon points="0 0 24 0 24 24 0 24"/>
    <mask id="yandex-b" fill="#fff">
      <use xlink:href="#yandex-a"/>
    </mask>
    <use fill="#000" xlink:href="#yandex-a"/>
    <g fill="#000" mask="url(#yandex-b)">
      <rect width="24" height="24"/>
    </g>
  </g>
</svg>
